static/img/kroki/ba1848a343bb9ee4fd33eda2c861589d.svg

<?xml version="1.0" encoding="us-ascii" standalone="no"?><svg xmlns="http://www.w3.org/2000/svg" xmlns:xlink="http://www.w3.org/1999/xlink" contentStyleType="text/css" height="374px" preserveAspectRatio="none" style="width:443px;height:374px;" version="1.1" viewBox="0 0 443 374" width="443px" zoomAndPan="magnify"><defs/><g><!--class autoscaling_group--><g id="elem_autoscaling_group"><rect codeLine="23" fill="#3D176E" height="39.7891" id="autoscaling_group" rx="2.5" ry="2.5" style="stroke:#000D19;stroke-width:0.5;" width="194" x="7" y="167.79"/><ellipse cx="22" cy="187.6845" fill="#ADD1B2" rx="11" ry="11" style="stroke:#181818;stroke-width:1.0;"/><path d="M24.9688,193.3252 Q24.3906,193.622 23.75,193.7627 Q23.1094,193.9189 22.4063,193.9189 Q19.9063,193.9189 18.5781,192.2783 Q17.2656,190.622 17.2656,187.497 Q17.2656,184.372 18.5781,182.7158 Q19.9063,181.0595 22.4063,181.0595 Q23.1094,181.0595 23.75,181.2158 Q24.4063,181.372 24.9688,181.6689 L24.9688,184.3877 Q24.3438,183.8095 23.75,183.5439 Q23.1563,183.2627 22.5313,183.2627 Q21.1875,183.2627 20.5,184.3408 Q19.8125,185.4033 19.8125,187.497 Q19.8125,189.5908 20.5,190.6689 Q21.1875,191.7314 22.5313,191.7314 Q23.1563,191.7314 23.75,191.4658 Q24.3438,191.1845 24.9688,190.6064 L24.9688,193.3252 Z " fill="#000000"/><text fill="#D9B8FF" font-family="Helvetica" font-size="17" lengthAdjust="spacing" textLength="152" x="41" y="193.5698">autoscaling_group</text></g><!--class azure_compute_virtual_machine_scale_set--><g id="elem_azure_compute_virtual_machine_scale_set"><rect codeLine="26" fill="#3D176E" height="39.7891" id="azure_compute_virtual_machine_scale_set" rx="2.5" ry="2.5" style="stroke:#000D19;stroke-width:0.5;" width="399" x="19.5" y="328.58"/><ellipse cx="34.5" cy="348.4745" fill="#ADD1B2" rx="11" ry="11" style="stroke:#181818;stroke-width:1.0;"/><path d="M37.4688,354.1152 Q36.8906,354.412 36.25,354.5527 Q35.6094,354.7089 34.9063,354.7089 Q32.4063,354.7089 31.0781,353.0683 Q29.7656,351.412 29.7656,348.287 Q29.7656,345.162 31.0781,343.5058 Q32.4063,341.8495 34.9063,341.8495 Q35.6094,341.8495 36.25,342.0058 Q36.9063,342.162 37.4688,342.4589 L37.4688,345.1777 Q36.8438,344.5995 36.25,344.3339 Q35.6563,344.0527 35.0313,344.0527 Q33.6875,344.0527 33,345.1308 Q32.3125,346.1933 32.3125,348.287 Q32.3125,350.3808 33,351.4589 Q33.6875,352.5214 35.0313,352.5214 Q35.6563,352.5214 36.25,352.2558 Q36.8438,351.9745 37.4688,351.3964 L37.4688,354.1152 Z " fill="#000000"/><text fill="#D9B8FF" font-family="Helvetica" font-size="17" lengthAdjust="spacing" textLength="357" x="53.5" y="354.3598">azure_compute_virtual_machine_scale_set</text></g><!--class microsoft_resource--><g id="elem_microsoft_resource"><rect codeLine="29" fill="#3D176E" height="39.7891" id="microsoft_resource" rx="2.5" ry="2.5" style="stroke:#000D19;stroke-width:0.5;" width="200" x="236" y="167.79"/><ellipse cx="251" cy="187.6845" fill="#ADD1B2" rx="11" ry="11" style="stroke:#181818;stroke-width:1.0;"/><path d="M253.9688,193.3252 Q253.3906,193.622 252.75,193.7627 Q252.1094,193.9189 251.4063,193.9189 Q248.9063,193.9189 247.5781,192.2783 Q246.2656,190.622 246.2656,187.497 Q246.2656,184.372 247.5781,182.7158 Q248.9063,181.0595 251.4063,181.0595 Q252.1094,181.0595 252.75,181.2158 Q253.4063,181.372 253.9688,181.6689 L253.9688,184.3877 Q253.3438,183.8095 252.75,183.5439 Q252.1563,183.2627 251.5313,183.2627 Q250.1875,183.2627 249.5,184.3408 Q248.8125,185.4033 248.8125,187.497 Q248.8125,189.5908 249.5,190.6689 Q250.1875,191.7314 251.5313,191.7314 Q252.1563,191.7314 252.75,191.4658 Q253.3438,191.1845 253.9688,190.6064 L253.9688,193.3252 Z " fill="#000000"/><text fill="#D9B8FF" font-family="Helvetica" font-size="17" lengthAdjust="spacing" textLength="158" x="270" y="193.5698">microsoft_resource</text></g><!--class resource--><g id="elem_resource"><rect codeLine="32" fill="#3D176E" height="39.7891" id="resource" rx="2.5" ry="2.5" style="stroke:#000D19;stroke-width:0.5;" width="113" x="162.5" y="7"/><ellipse cx="177.5" cy="26.8945" fill="#ADD1B2" rx="11" ry="11" style="stroke:#181818;stroke-width:1.0;"/><path d="M180.4688,32.5352 Q179.8906,32.832 179.25,32.9727 Q178.6094,33.1289 177.9063,33.1289 Q175.4063,33.1289 174.0781,31.4883 Q172.7656,29.832 172.7656,26.707 Q172.7656,23.582 174.0781,21.9258 Q175.4063,20.2695 177.9063,20.2695 Q178.6094,20.2695 179.25,20.4258 Q179.9063,20.582 180.4688,20.8789 L180.4688,23.5977 Q179.8438,23.0195 179.25,22.7539 Q178.6563,22.4727 178.0313,22.4727 Q176.6875,22.4727 176,23.5508 Q175.3125,24.6133 175.3125,26.707 Q175.3125,28.8008 176,29.8789 Q176.6875,30.9414 178.0313,30.9414 Q178.6563,30.9414 179.25,30.6758 Q179.8438,30.3945 180.4688,29.8164 L180.4688,32.5352 Z " fill="#000000"/><text fill="#D9B8FF" font-family="Helvetica" font-size="17" lengthAdjust="spacing" textLength="71" x="196.5" y="32.7798">resource</text></g><!--reverse link resource to autoscaling_group--><g id="link_resource_autoscaling_group"><path codeLine="35" d="M194.5699,61.6268 C172.4599,92.1468 140.06,136.9 117.92,167.46 " fill="none" id="resource-backto-autoscaling_group" style="stroke:#FFAF37;stroke-width:2.0;"/><polygon fill="none" points="205.13,47.05,189.711,58.1068,199.4289,65.1469,205.13,47.05" style="stroke:#FFAF37;stroke-width:2.0;"/></g><!--reverse link autoscaling_group to azure_compute_virtual_machine_scale_set--><g id="link_autoscaling_group_azure_compute_virtual_machine_scale_set"><path codeLine="36" d="M128.4301,222.4168 C150.5401,252.9368 182.94,297.69 205.08,328.25 " fill="none" id="autoscaling_group-backto-azure_compute_virtual_machine_scale_set" style="stroke:#FFAF37;stroke-width:2.0;"/><polygon fill="none" points="117.87,207.84,123.5711,225.9369,133.289,218.8968,117.87,207.84" style="stroke:#FFAF37;stroke-width:2.0;"/></g><!--reverse link microsoft_resource to azure_compute_virtual_machine_scale_set--><g id="link_microsoft_resource_azure_compute_virtual_machine_scale_set"><path codeLine="37" d="M311.2119,222.3306 C288.7219,252.8506 255.68,297.69 233.16,328.25 " fill="none" id="microsoft_resource-backto-azure_compute_virtual_machine_scale_set" style="stroke:#FFAF37;stroke-width:2.0;"/><polygon fill="none" points="321.89,207.84,306.3817,218.7713,316.0421,225.89,321.89,207.84" style="stroke:#FFAF37;stroke-width:2.0;"/></g><!--reverse link resource to microsoft_resource--><g id="link_resource_microsoft_resource"><path codeLine="38" d="M243.7881,61.5406 C266.2781,92.0606 299.32,136.9 321.84,167.46 " fill="none" id="resource-backto-microsoft_resource" style="stroke:#FFAF37;stroke-width:2.0;"/><polygon fill="none" points="233.11,47.05,238.9579,65.1,248.6183,57.9813,233.11,47.05" style="stroke:#FFAF37;stroke-width:2.0;"/></g><!--SRC=[bP9DQm8n48Rl-oi2dWMjj2hqOXTAUv5IUrzYCd63csIPp2hQzhztjtuGDtwqbuNC-sJccR2vbi30bBHX1imSq2T-gMt9aHisGNJhr1KEMKSfhWR3TlZiBDq4fjm0Uu5Y1QG5RnCVkHPB2zwpko1wucAvG5TPkMjFoAsl8x0KK6d1lPyGePvN186C7Cz7IhN9TjFEGFQ73n1X3YNW7kdrUh8_RYCtHrtT-qZCz1POFtoqgIE8DACHlzHLouO89AD53_b5npSkfROBTX_KtdTEQ05FwhESIxTkQCKB7uxn10YEDYMaqLOm7aarF0k_Ne8JqJmTunKvBtXHZymQh6IVIV9z2BSLGYQSAUj_8bjff8eNcU4YrnQovbhz1Ggl62tGUQSeG_2kGW5XUbexdXw_kjrkh9B4SdloRrx96Pd_DMXTY_ibFm00]--></g></svg>

<svg xmlns="http://www.w3.org/2000/svg" width="443" height="374" viewBox="0 0 443 374"><rect width="194" height="39.789" x="7" y="167.79" fill="#3D176E" rx="2.5" ry="2.5" style="stroke:#000d19;stroke-width:.5"/><circle cx="22" cy="187.685" r="11" fill="#ADD1B2" style="stroke:#181818;stroke-width:1"/><path d="M24.969 193.325q-.578.297-1.219.438-.64.156-1.344.156-2.5 0-3.828-1.64-1.312-1.657-1.312-4.782t1.312-4.781q1.328-1.656 3.828-1.656.703 0 1.344.156.656.156 1.219.453v2.719q-.625-.578-1.219-.844-.594-.281-1.219-.281-1.343 0-2.031 1.078-.687 1.062-.687 3.156t.687 3.172q.688 1.062 2.031 1.062.625 0 1.219-.265.594-.281 1.219-.86z"/><text x="41" y="193.57" fill="#D9B8FF" font-family="Helvetica" font-size="17" textLength="152">autoscaling_group</text><rect width="399" height="39.789" x="19.5" y="328.58" fill="#3D176E" rx="2.5" ry="2.5" style="stroke:#000d19;stroke-width:.5"/><circle cx="34.5" cy="348.474" r="11" fill="#ADD1B2" style="stroke:#181818;stroke-width:1"/><path d="M37.469 354.115q-.578.297-1.219.438-.64.156-1.344.156-2.5 0-3.828-1.64-1.312-1.657-1.312-4.782t1.312-4.781q1.328-1.656 3.828-1.656.703 0 1.344.156.656.156 1.219.453v2.719q-.625-.579-1.219-.844-.594-.281-1.219-.281-1.343 0-2.031 1.078-.687 1.062-.687 3.156t.687 3.172q.688 1.062 2.031 1.062.625 0 1.219-.265.594-.281 1.219-.86z"/><text x="53.5" y="354.36" fill="#D9B8FF" font-family="Helvetica" font-size="17" textLength="357">azure_compute_virtual_machine_scale_set</text><rect width="200" height="39.789" x="236" y="167.79" fill="#3D176E" rx="2.5" ry="2.5" style="stroke:#000d19;stroke-width:.5"/><circle cx="251" cy="187.685" r="11" fill="#ADD1B2" style="stroke:#181818;stroke-width:1"/><path d="M253.969 193.325q-.578.297-1.219.438-.64.156-1.344.156-2.5 0-3.828-1.64-1.312-1.657-1.312-4.782t1.312-4.781q1.328-1.656 3.828-1.656.703 0 1.344.156.656.156 1.219.453v2.719q-.625-.578-1.219-.844-.594-.281-1.219-.281-1.344 0-2.031 1.078-.687 1.062-.687 3.156t.687 3.172q.688 1.062 2.031 1.062.625 0 1.219-.265.594-.281 1.219-.86z"/><text x="270" y="193.57" fill="#D9B8FF" font-family="Helvetica" font-size="17" textLength="158">microsoft_resource</text><rect width="113" height="39.789" x="162.5" y="7" fill="#3D176E" rx="2.5" ry="2.5" style="stroke:#000d19;stroke-width:.5"/><circle cx="177.5" cy="26.895" r="11" fill="#ADD1B2" style="stroke:#181818;stroke-width:1"/><path d="M180.469 32.535q-.578.297-1.219.438-.64.156-1.344.156-2.5 0-3.828-1.64-1.312-1.657-1.312-4.782t1.312-4.781q1.328-1.656 3.828-1.656.703 0 1.344.156.656.156 1.219.453v2.719q-.625-.578-1.219-.844-.594-.281-1.219-.281-1.344 0-2.031 1.078-.687 1.062-.687 3.156t.687 3.172q.688 1.062 2.031 1.062.625 0 1.219-.265.594-.281 1.219-.86z"/><text x="196.5" y="32.78" fill="#D9B8FF" font-family="Helvetica" font-size="17" textLength="71">resource</text><g fill="none"><path d="M194.57 61.627c-22.11 30.52-54.51 75.273-76.65 105.833" style="stroke:#ffaf37;stroke-width:2"/><path d="m205.13 47.05-15.419 11.057 9.718 7.04z" style="stroke:#ffaf37;stroke-width:2"/></g><g fill="none"><path d="M128.43 222.417c22.11 30.52 54.51 75.273 76.65 105.833" style="stroke:#ffaf37;stroke-width:2"/><path d="m117.87 207.84 5.701 18.097 9.718-7.04z" style="stroke:#ffaf37;stroke-width:2"/></g><path fill="none" d="M311.212 222.33 233.16 328.25m88.73-120.41-15.508 10.931 9.66 7.119zm-78.102-146.3 78.052 105.92M233.11 47.05l5.848 18.05 9.66-7.119z" style="stroke:#ffaf37;stroke-width:2"/></svg>
